packages/dnb-ui-lib/assets/icons/card_in_medium.svg

<svg width="24" height="24" viewBox="0 0 24 24" fill="none" xmlns="http://www.w3.org/2000/svg">
<path d="M12 15.25C11.5858 15.25 11.25 15.5858 11.25 16C11.25 16.4142 11.5858 16.75 12 16.75V15.25ZM19.5 16.75C19.9142 16.75 20.25 16.4142 20.25 16C20.25 15.5858 19.9142 15.25 19.5 15.25V16.75ZM0 8C0 8.41421 0.335786 8.75 0.75 8.75C1.16421 8.75 1.5 8.41421 1.5 8H0ZM1.5 17C1.5 16.5858 1.16421 16.25 0.75 16.25C0.335786 16.25 0 16.5858 0 17H1.5ZM1 11.75C0.585786 11.75 0.25 12.0858 0.25 12.5C0.25 12.9142 0.585786 13.25 1 13.25V11.75ZM5.46967 14.4697C5.17678 14.7626 5.17678 15.2374 5.46967 15.5303C5.76256 15.8232 6.23744 15.8232 6.53033 15.5303L5.46967 14.4697ZM8.5 12.5L9.03033 13.0303C9.32322 12.7374 9.32322 12.2626 9.03033 11.9697L8.5 12.5ZM6.53033 9.46967C6.23744 9.17678 5.76256 9.17678 5.46967 9.46967C5.17678 9.76256 5.17678 10.2374 5.46967 10.5303L6.53033 9.46967ZM2.75 5.25H21.25V3.75H2.75V5.25ZM22.5 6.5V17.5H24V6.5H22.5ZM21.25 18.75H2.75V20.25H21.25V18.75ZM12 16.75H19.5V15.25H12V16.75ZM1.5 8V6.5H0V8H1.5ZM1.5 17.5V17H0V17.5H1.5ZM2.75 18.75C2.05964 18.75 1.5 18.1904 1.5 17.5H0C0 19.0188 1.23122 20.25 2.75 20.25V18.75ZM22.5 17.5C22.5 18.1904 21.9404 18.75 21.25 18.75V20.25C22.7688 20.25 24 19.0188 24 17.5H22.5ZM21.25 5.25C21.9404 5.25 22.5 5.80964 22.5 6.5H24C24 4.98122 22.7688 3.75 21.25 3.75V5.25ZM2.75 3.75C1.23122 3.75 0 4.98122 0 6.5H1.5C1.5 5.80964 2.05964 5.25 2.75 5.25V3.75ZM6.53033 15.5303L9.03033 13.0303L7.96967 11.9697L5.46967 14.4697L6.53033 15.5303ZM9.03033 11.9697L6.53033 9.46967L5.46967 10.5303L7.96967 13.0303L9.03033 11.9697ZM1 13.25H8.5V11.75H1V13.25Z" fill="black"/>
</svg>

<svg width="24" height="24" viewBox="0 0 24 24" fill="none" xmlns="http://www.w3.org/2000/svg"><path d="M12 15.25a.75.75 0 000 1.5v-1.5zm7.5 1.5a.75.75 0 000-1.5v1.5zM0 8a.75.75 0 001.5 0H0zm1.5 9A.75.75 0 000 17h1.5zM1 11.75a.75.75 0 000 1.5v-1.5zm4.47 2.72a.75.75 0 101.06 1.06l-1.06-1.06zM8.5 12.5l.53.53a.75.75 0 000-1.06l-.53.53zM6.53 9.47a.75.75 0 00-1.06 1.06l1.06-1.06zM2.75 5.25h18.5v-1.5H2.75v1.5zM22.5 6.5v11H24v-11h-1.5zm-1.25 12.25H2.75v1.5h18.5v-1.5zm-9.25-2h7.5v-1.5H12v1.5zM1.5 8V6.5H0V8h1.5zm0 9.5V17H0v.5h1.5zm1.25 1.25c-.69 0-1.25-.56-1.25-1.25H0a2.75 2.75 0 002.75 2.75v-1.5zM22.5 17.5c0 .69-.56 1.25-1.25 1.25v1.5A2.75 2.75 0 0024 17.5h-1.5zM21.25 5.25c.69 0 1.25.56 1.25 1.25H24a2.75 2.75 0 00-2.75-2.75v1.5zm-18.5-1.5A2.75 2.75 0 000 6.5h1.5c0-.69.56-1.25 1.25-1.25v-1.5zm3.78 11.78l2.5-2.5-1.06-1.06-2.5 2.5 1.06 1.06zm2.5-3.56l-2.5-2.5-1.06 1.06 2.5 2.5 1.06-1.06zM1 13.25h7.5v-1.5H1v1.5z" fill="#000"/></svg>
